X: 16337
T: Gudgeon Of Maurice's Car
R: jig
M: 6/8
K: Gmajor
|:(dc)|BAG Bcd|e2d efg|dcB gdB|A3 ABc|
BAG Bcd|e2d efg|dcB gdB|cAF G2:|
|:d|g3 bag|fed efg|dcB gdB|A3 ABd|
[1 g3 bag|fed efg|dcB gdB|cAF GBd:|
[2 BAG Bcd|e2d efg|dcB gdB|cAF G2||

